tp1/assets/images/teams/1610612762.svg

<svg enable-background="new 0 0 400 400" viewBox="0 0 400 400" xmlns="http://www.w3.org/2000/svg"><path d="m376 81.4-34.3 73.6h-137.4l-43.3 92.8h-38.8c.3-4.6 1.2-9.3 2.7-13.8 3.7-11.2 10.7-20.4 19.5-27 2.3 2.6 4.4 5.5 6.3 8.5.3.5.9.4 1.1 0l62.6-134.2h161.6zm-318.2 195.2c-3.9 7.8-9.5 14.5-16.3 19.6-5.7-6.6-10.2-14.3-13.1-23.1-2-5.9-3.1-11.8-3.4-17.7h38.6c-.5 7.3-2.4 14.5-5.8 21.2m31.3-21.2v64.2c-15.8-.9-30.7-7.3-42.3-17.9 7.4-5.7 13.4-13.1 17.8-21.7 3.9-7.8 6.1-16.1 6.6-24.6zm-28.2-21.4c1.5 4.5 2.4 9.2 2.7 13.8h-38.6c.8-15.1 6.7-29.4 16.5-40.7 8.7 6.6 15.6 15.8 19.4 26.9m28.2-50.3v64.2h-17.9c-.3-5.4-1.4-10.9-3.1-16.2-4.1-12.4-11.7-22.6-21.3-30 6.9-6.4 15.2-11.4 24.7-14.6 5.8-2 11.7-3.1 17.6-3.4m25.5 64.1h-17.9v-64.2c15.8.9 30.8 7.2 42.4 17.9-9.9 7.6-17.3 18-21.4 30.1-1.8 5.4-2.8 10.8-3.1 16.2m24.5 54c-6.9 6.3-15.2 11.3-24.6 14.5-5.9 2-11.9 3.1-17.8 3.4v-64.2h17.8c.5 8.5 2.7 16.8 6.6 24.6 4.4 8.6 10.5 16 18 21.7m21.9-46.4c-.8 15.1-6.7 29.5-16.6 40.9-6.9-5.1-12.5-11.8-16.4-19.7-3.4-6.7-5.3-13.9-5.8-21.2z"/></svg>

<svg xmlns="http://www.w3.org/2000/svg" viewBox="0 0 400 400" style="enable-background:new 0 0 400 400" xml:space="preserve">
    <path d="M376 81.4 341.7 155H204.3L161 247.8h-38.8c.3-4.6 1.2-9.3 2.7-13.8 3.7-11.2 10.7-20.4 19.5-27 2.3 2.6 4.4 5.5 6.3 8.5.3.5.9.4 1.1 0l62.6-134.2H376zM57.8 276.6c-3.9 7.8-9.5 14.5-16.3 19.6-5.7-6.6-10.2-14.3-13.1-23.1-2-5.9-3.1-11.8-3.4-17.7h38.6c-.5 7.3-2.4 14.5-5.8 21.2M89.1 255.4v64.2c-15.8-.9-30.7-7.3-42.3-17.9 7.4-5.7 13.4-13.1 17.8-21.7 3.9-7.8 6.1-16.1 6.6-24.6h17.9zM60.9 234c1.5 4.5 2.4 9.2 2.7 13.8H25c.8-15.1 6.7-29.4 16.5-40.7 8.7 6.6 15.6 15.8 19.4 26.9M89.1 183.7v64.2H71.2c-.3-5.4-1.4-10.9-3.1-16.2-4.1-12.4-11.7-22.6-21.3-30 6.9-6.4 15.2-11.4 24.7-14.6 5.8-2 11.7-3.1 17.6-3.4M114.6 247.8H96.7v-64.2c15.8.9 30.8 7.2 42.4 17.9-9.9 7.6-17.3 18-21.4 30.1-1.8 5.4-2.8 10.8-3.1 16.2M139.1 301.8c-6.9 6.3-15.2 11.3-24.6 14.5-5.9 2-11.9 3.1-17.8 3.4v-64.2h17.8c.5 8.5 2.7 16.8 6.6 24.6 4.4 8.6 10.5 16 18 21.7M161 255.4c-.8 15.1-6.7 29.5-16.6 40.9-6.9-5.1-12.5-11.8-16.4-19.7-3.4-6.7-5.3-13.9-5.8-21.2H161z"/>
</svg>
